svg/xlsx.svg

<?xml version="1.0" encoding="UTF-8"?>
<svg xmlns="http://www.w3.org/2000/svg" xmlns:xlink="http://www.w3.org/1999/xlink" width="32" height="32" viewBox="0 0 32 32">
<rect x="-3.2" y="-3.2" width="38.4" height="38.4" fill="rgb(100%, 100%, 100%)" fill-opacity="1"/>
<path fill-rule="nonzero" fill="rgb(0%, 0%, 0%)" fill-opacity="1" d="M 32 32 L 0 32 L 0 0 L 32 0 Z M 3.105469 28.800781 L 28.929688 28.800781 L 28.929688 3.199219 L 3.105469 3.199219 M 13.375 15.519531 L 7.648438 8.640625 L 13.566406 8.640625 L 16.0625 12.449219 L 19.136719 8.640625 L 25.054688 8.640625 L 18.976562 15.519531 L 25.824219 23.359375 L 19.96875 23.359375 L 16.289062 18.558594 L 11.96875 23.359375 L 6.175781 23.359375 Z M 13.375 15.519531 "/>
</svg>

<svg role="img" viewBox="0 0 32 32" xmlns="http://www.w3.org/2000/svg"><path d="M-3.2-3.2h38.4v38.4H-3.2z" fill="rgb(100%, 100%, 100%)"/><path d="M32 32H0V0h32ZM3.105 28.8H28.93V3.2H3.105m10.27 12.32L7.648 8.64h5.918l2.496 3.81 3.075-3.81h5.918l-6.078 6.88 6.847 7.84H19.97l-3.68-4.801-4.32 4.8H6.176Zm0 0" fill="rgb(0%, 0%, 0%)"/></svg>
